X: 31900
T: Peacock Follow The Hen
R: slip jig
M: 9/8
K: Gmajor
GAB E3 E3|GAB E3 AFD|GAB E3 E3|FED AdB AFD:|
|:GAB BdB BdB|GAB BdB AFD|GAB BdB B3|cBA AdB AFD:|

